Numix/16/status/indicator-keyboard-Gr-4.svg

<?xml version="1.0" encoding="UTF-8" standalone="no"?>
<svg
   xmlns:dc="http://purl.org/dc/elements/1.1/"
   xmlns:cc="http://creativecommons.org/ns#"
   xmlns:rdf="http://www.w3.org/1999/02/22-rdf-syntax-ns#"
   xmlns:svg="http://www.w3.org/2000/svg"
   xmlns="http://www.w3.org/2000/svg"
   xmlns:sodipodi="http://sodipodi.sourceforge.net/DTD/sodipodi-0.dtd"
   xmlns:inkscape="http://www.inkscape.org/namespaces/inkscape"
   viewBox="0 0 16 16"
   id="svg2"
   version="1.1"
   inkscape:version="0.91 r13725"
   sodipodi:docname="indicator-keyboard-Gr-4.svg">
  <metadata
     id="metadata14">
    <rdf:RDF>
      <cc:Work
         rdf:about="">
        <dc:format>image/svg+xml</dc:format>
        <dc:type
           rdf:resource="http://purl.org/dc/dcmitype/StillImage" />
      </cc:Work>
    </rdf:RDF>
  </metadata>
  <defs
     id="defs12" />
  <sodipodi:namedview
     pagecolor="#ffffff"
     bordercolor="#666666"
     borderopacity="1"
     objecttolerance="10"
     gridtolerance="10"
     guidetolerance="10"
     inkscape:pageopacity="0"
     inkscape:pageshadow="2"
     inkscape:window-width="459"
     inkscape:window-height="369"
     id="namedview10"
     showgrid="false"
     inkscape:zoom="14.75"
     inkscape:cx="8"
     inkscape:cy="8"
     inkscape:window-x="65"
     inkscape:window-y="24"
     inkscape:window-maximized="0"
     inkscape:current-layer="svg2" />
  <path
     style="fill:#ececec;fill-opacity:1"
     d="M 1.5996094 0 C 0.71320937 2.9605947e-16 0 0.71320937 0 1.5996094 L 0 14.400391 C 2.9605947e-16 15.286791 0.71320937 16 1.5996094 16 L 14.400391 16 C 15.286791 16 16 15.286791 16 14.400391 L 16 1.5996094 C 16 0.71320937 15.286791 0 14.400391 0 L 1.5996094 0 z M 5.0683594 4.7246094 C 5.5303594 4.7246094 5.9128906 4.7749531 6.2128906 4.8769531 C 6.5128906 4.9729531 6.7311406 5.06625 6.8691406 5.15625 L 6.6621094 5.6777344 C 6.4941094 5.5577344 6.2665156 5.462625 5.9785156 5.390625 C 5.6905156 5.312625 5.3770156 5.2734375 5.0410156 5.2734375 C 4.7290156 5.2734375 4.4361563 5.3293594 4.1601562 5.4433594 C 3.8841563 5.5573594 3.6434531 5.7290313 3.4394531 5.9570312 C 3.2354531 6.1850312 3.073125 6.4667344 2.953125 6.8027344 C 2.839125 7.1387344 2.7832031 7.5286563 2.7832031 7.9726562 C 2.7832031 8.3866563 2.8317344 8.7616563 2.9277344 9.0976562 C 3.0237344 9.4276563 3.167375 9.713125 3.359375 9.953125 C 3.557375 10.187125 3.7998906 10.366188 4.0878906 10.492188 C 4.3758906 10.618187 4.7098906 10.681641 5.0878906 10.681641 C 5.3938906 10.681641 5.6475625 10.666719 5.8515625 10.636719 C 6.0615625 10.600719 6.2033906 10.567109 6.2753906 10.537109 L 6.2753906 8.1445312 L 6.8867188 8.1445312 L 6.8867188 10.925781 C 6.7727187 10.973781 6.5488906 11.033469 6.2128906 11.105469 C 5.8828906 11.183469 5.4742813 11.222656 4.9882812 11.222656 C 4.5802812 11.222656 4.2015156 11.149859 3.8535156 11.005859 C 3.5055156 10.861859 3.2033125 10.654766 2.9453125 10.384766 C 2.6933125 10.108765 2.4955625 9.7691875 2.3515625 9.3671875 C 2.2075625 8.9591875 2.1347656 8.4946563 2.1347656 7.9726562 C 2.1347656 7.4506563 2.2131406 6.9898906 2.3691406 6.5878906 C 2.5251406 6.1798906 2.7340469 5.8403125 2.9980469 5.5703125 C 3.2680469 5.2943125 3.5815469 5.0834531 3.9355469 4.9394531 C 4.2895469 4.7954531 4.6663594 4.7246094 5.0683594 4.7246094 z M 9.859375 6.3535156 C 10.051375 6.3535156 10.230437 6.3684375 10.398438 6.3984375 C 10.572437 6.4284375 10.691812 6.4582812 10.757812 6.4882812 L 10.642578 6.9921875 C 10.594578 6.9681875 10.495703 6.9439219 10.345703 6.9199219 C 10.201703 6.8899219 10.009531 6.875 9.7695312 6.875 C 9.5175312 6.875 9.31225 6.8936875 9.15625 6.9296875 C 9.00625 6.9656875 8.907375 6.9955312 8.859375 7.0195312 L 8.859375 11.095703 L 8.2753906 11.095703 L 8.2753906 6.6582031 C 8.4253906 6.5922031 8.6324844 6.5269375 8.8964844 6.4609375 C 9.1604844 6.3889375 9.481375 6.3535156 9.859375 6.3535156 z M 12.964844 8.8417969 L 13.361328 8.8417969 L 13.361328 11.486328 L 13.865234 11.486328 L 13.865234 11.796875 L 13.361328 11.796875 L 13.361328 12.896484 L 12.988281 12.896484 L 12.988281 11.796875 L 11.150391 11.796875 L 11.150391 11.5625 C 11.220591 11.3753 11.318559 11.163687 11.443359 10.929688 C 11.572059 10.695688 11.717053 10.456637 11.876953 10.210938 C 12.036853 9.9652374 12.209284 9.7261874 12.396484 9.4921875 C 12.583684 9.2542875 12.773744 9.0367969 12.964844 8.8417969 z M 12.988281 9.2695312 C 12.851781 9.4099312 12.712666 9.5706063 12.572266 9.7539062 C 12.431866 9.9372063 12.296669 10.129225 12.167969 10.328125 C 12.043169 10.523125 11.927559 10.719069 11.818359 10.917969 C 11.709159 11.116869 11.617069 11.306928 11.542969 11.486328 L 12.988281 11.486328 L 12.988281 9.2695312 z "
     id="path4" />
</svg>

<svg xmlns="http://www.w3.org/2000/svg" viewBox="0 0 16 16">
 <path d="m 1.6 0 c -0.886 0 -1.6 0.713 -1.6 1.6 l 0 12.801 c 0 0.886 0.713 1.6 1.6 1.6 l 12.801 0 c 0.886 0 1.6 -0.713 1.6 -1.6 l 0 -12.801 c 0 -0.886 -0.713 -1.6 -1.6 -1.6 l -12.801 0 z m 3.469 4.725 c 0.462 0 0.845 0.05 1.145 0.152 c 0.3 0.096 0.518 0.189 0.656 0.279 l -0.207 0.521 c -0.168 -0.12 -0.396 -0.215 -0.684 -0.287 c -0.288 -0.078 -0.601 -0.117 -0.938 -0.117 c -0.312 0 -0.605 0.056 -0.881 0.17 c -0.276 0.114 -0.517 0.286 -0.721 0.514 c -0.204 0.228 -0.366 0.51 -0.486 0.846 c -0.114 0.336 -0.17 0.726 -0.17 1.17 c 0 0.414 0.049 0.789 0.145 1.125 c 0.096 0.33 0.24 0.615 0.432 0.855 c 0.198 0.234 0.441 0.413 0.729 0.539 c 0.288 0.126 0.622 0.189 1 0.189 c 0.306 0 0.56 -0.015 0.764 -0.045 c 0.21 -0.036 0.352 -0.07 0.424 -0.1 l 0 -2.393 l 0.611 0 l 0 2.781 c -0.114 0.048 -0.338 0.108 -0.674 0.18 c -0.33 0.078 -0.739 0.117 -1.225 0.117 c -0.408 0 -0.787 -0.073 -1.135 -0.217 c -0.348 -0.144 -0.65 -0.351 -0.908 -0.621 c -0.252 -0.276 -0.45 -0.616 -0.594 -1.018 c -0.144 -0.408 -0.217 -0.873 -0.217 -1.395 c 0 -0.522 0.078 -0.983 0.234 -1.385 c 0.156 -0.408 0.365 -0.748 0.629 -1.018 c 0.27 -0.276 0.584 -0.487 0.938 -0.631 c 0.354 -0.144 0.731 -0.215 1.133 -0.215 z m 4.791 1.629 c 0.192 0 0.371 0.015 0.539 0.045 c 0.174 0.03 0.293 0.06 0.359 0.09 l -0.115 0.504 c -0.048 -0.024 -0.147 -0.048 -0.297 -0.072 c -0.144 -0.03 -0.336 -0.045 -0.576 -0.045 c -0.252 0 -0.457 0.019 -0.613 0.055 c -0.15 0.036 -0.249 0.066 -0.297 0.09 l 0 4.076 l -0.584 0 l 0 -4.437 c 0.15 -0.066 0.357 -0.131 0.621 -0.197 c 0.264 -0.072 0.585 -0.107 0.963 -0.107 z m 3.105 2.488 l 0.396 0 l 0 2.645 l 0.504 0 l 0 0.311 l -0.504 0 l 0 1.1 l -0.373 0 l 0 -1.1 l -1.838 0 l 0 -0.234 c 0.07 -0.187 0.168 -0.399 0.293 -0.633 c 0.129 -0.234 0.274 -0.473 0.434 -0.719 c 0.16 -0.246 0.332 -0.485 0.52 -0.719 c 0.187 -0.238 0.377 -0.455 0.568 -0.65 z m 0.023 0.428 c -0.136 0.14 -0.276 0.301 -0.416 0.484 c -0.14 0.183 -0.276 0.375 -0.404 0.574 c -0.125 0.195 -0.24 0.391 -0.35 0.59 c -0.109 0.199 -0.201 0.389 -0.275 0.568 l 1.445 0 l 0 -2.217 z" style="fill:#ececec;fill-opacity:1"/>
</svg>
